!!!OTL: ALLEMAL KANN MAN NIT LUSTIG SEIN
!!!ARE: Europa, Mitteleuropa, Deutschland, Schwaben
!!!SCT: E1390
!!!YEM: Copyright 1995, estate of Helmut Schaffrath.
**kern
*ICvox
*Ivox
*M3/8
*k[f#]
*G:
=1
{8.g
16g
8g
=2
8b
8a
8g
=3
8.dd
16d
8d
=4
8.dd
16d
8d}
=5
{8.g
16g
8g
=6
8b
8a
8g
=7
[4.dd
=8
4dd]
8r}
=9
{8.cc
16dd
8ee
=10
8ee
8dd
8cc
=11
8b
16b
16cc
8dd
=12
8a
16a
16b
8cc}
=13
{8.g
16g
8g
=14
8f#
8e
8f#
=15
[4.g
=16
4g]
8r}
=17
{8.cc
16dd
8ee
=18
8ee
8dd
8cc
=19
8b
16b
16cc
8dd
=20
8a
16a
16b
8cc}
=21
{8.g
16g
8g
=22
8f#
8e
8f#
=23
[4.g
=24
4g]
8r}
==
!!!AGN: Staende -, Soldaten - Lied, Scherz
!!!ONB: ESAC (Essen Associative Code) Database: ERK3
!!!AMT: simple triple
!!!AIN: vox
!!!EED: Helmut Schaffrath
!!!EEV: 1.0
*-
